shared/.icons/Vimix-White/16/devices/audio-input-microphone.svg

<svg width="16" height="16" version="1.1" xmlns="http://www.w3.org/2000/svg">
 <defs>
  <style id="current-color-scheme" type="text/css">.ColorScheme-Text { color:#727272; } .ColorScheme-Highlight { color:#5294e2; }</style>
 </defs>
 <path class="ColorScheme-Text" d="m8 0c-1.66 0-3 1.34-3 3v5c0 1.66 1.34 3 3 3s3-1.34 3-3v-5c0-1.66-1.34-3-3-3zm0 2c0.554 0 1 0.446 1 1v5c0 0.554-0.446 1-1 1s-1-0.446-1-1v-5c0-0.554 0.446-1 1-1zm-6 5v1c0 2.97 2.16 5.4302 5 5.9102v2.0898h2v-2.0898c2.84-0.48 5-2.9402 5-5.9102v-1h-2v1c0 2.23-1.77 4-4 4-2.23 0-4-1.77-4-4v-1h-2z" fill="currentColor"/>
</svg>

<svg xmlns="http://www.w3.org/2000/svg" width="16" height="16" version="1.1">
 <defs>
  <style id="current-color-scheme" type="text/css">
   .ColorScheme-Text { color:#727272; } .ColorScheme-Highlight { color:#5294e2; }
  </style>
 </defs>
 <path style="fill:currentColor" class="ColorScheme-Text" d="M 8,0 C 6.34,0 5,1.34 5,3 V 8 C 5,9.66 6.34,11 8,11 9.66,11 11,9.66 11,8 V 3 C 11,1.34 9.66,0 8,0 Z M 2,7 V 8 C 2,10.97 4.16,13.43 7,13.91 V 16 H 9 V 13.91 C 11.84,13.43 14,10.97 14,8 V 7 H 12 V 8 C 12,10.23 10.23,12 8,12 5.77,12 4,10.23 4,8 V 7 Z"/>
</svg>
